X: 1
T: Richard's Jig
C: David A Kaynor 1981
%D:1981
R: jig
Z: 2021 John Chambers <jc:trillian.mit.edu>
S: https://fiddlewesternmass.files.wordpress.com/2019/03/richards-jig-kaynor-with-harmonies.pdf
N: Named for Dave's clarinet-playing friend, Richard Blazej.
M: C|
L: 1/8
K: D
"A7"a2g \
| "D"f2A "A7"e2A | "Bm"ded "A7"cBA | "G"d2A "A7"e2A | "D"f3 a2g |
| "A7"fee egf | "D"edd d2f |1 "E7"edc BA^G | "A"A3 :|2 "E7"agf "A7"edc | "D"d3 ||
|: "A7"c2d \
| "A7"eAA cAA | eAd cBA | "G"dAd "A7"eAe | "D"f3 fef |
| "G"gba gfe | "D"fag fed |1 "E7"efd ceB | "A"A2B :|2 "Em"egf "A7"edc | "D"d3 |]
